src/pos-icons/bunk-bed-outline.svg

<svg height="24" viewBox="0 0 24 24" width="24" xmlns="http://www.w3.org/2000/svg"><path d="m1 2h2v7h7v-6h9c2.2 0 4 1.8 4 4v16h-2v-2h-18v2h-2zm11 3v4h9v-2c0-1.1-.9-2-2-2zm-9 6v8h7v-6h9c.7 0 1.4.2 2 .6v-2.6zm3.5 2c1.4 0 2.5 1.1 2.5 2.5s-1.1 2.5-2.5 2.5-2.5-1.1-2.5-2.5 1.1-2.5 2.5-2.5m0 1.6c-.5 0-.9.4-.9.9s.4.9.9.9.9-.4.9-.9-.4-.9-.9-.9m5.5.4v4h9v-2c0-1.1-.9-2-2-2zm-5.5-12c1.4 0 2.5 1.1 2.5 2.5s-1.1 2.5-2.5 2.5-2.5-1.1-2.5-2.5 1.1-2.5 2.5-2.5m0 1.6c-.5 0-.9.4-.9.9s.4.9.9.9.9-.4.9-.9-.4-.9-.9-.9z"/></svg>

<?xml version="1.0" encoding="UTF-8"?><!DOCTYPE svg PUBLIC "-//W3C//DTD SVG 1.1//EN" "http://www.w3.org/Graphics/SVG/1.1/DTD/svg11.dtd"><svg xmlns="http://www.w3.org/2000/svg" xmlns:xlink="http://www.w3.org/1999/xlink" version="1.1" id="mdi-bunk-bed-outline" width="24" height="24" viewBox="0 0 24 24"><path d="M1 2H3V9H10V3H19C21.2 3 23 4.8 23 7V23H21V21H3V23H1V2M12 5V9H21V7C21 5.9 20.1 5 19 5H12M3 11V19H10V13H19C19.7 13 20.4 13.2 21 13.6V11H3M6.5 13C7.9 13 9 14.1 9 15.5S7.9 18 6.5 18 4 16.9 4 15.5 5.1 13 6.5 13M6.5 14.6C6 14.6 5.6 15 5.6 15.5S6 16.4 6.5 16.4 7.4 16 7.4 15.5 7 14.6 6.5 14.6M12 15V19H21V17C21 15.9 20.1 15 19 15H12M6.5 3C7.9 3 9 4.1 9 5.5S7.9 8 6.5 8 4 6.9 4 5.5 5.1 3 6.5 3M6.5 4.6C6 4.6 5.6 5 5.6 5.5S6 6.4 6.5 6.4 7.4 6 7.4 5.5 7 4.6 6.5 4.6Z" /></svg>
